X: 1
T:Lardners' -- Reel
M:2/4
L:1/16
R:reel
B:Ryan's Mammoth Collection
N:144
Z:Contributed by Ray Davies,  ray:davies99.freeserve.co.uk
K:A
u(EG)|\
.A2(Ac) BAGB | Aceg .a2(ga) | bgeg agfe | dcBA GBEG |
.A2(Ac) BAGB | Aceg .a2(ga) | bgeg {b}agae | fdBc A2::
uE2|\
.E2(GE) BEGB | .A2(cA) eAcA | .B2(dB) fBdB | .e2(ge) bgeg |
 agae faec | defg agaf | eagf edcB | cEGB A2:|
